img/prop-icon8.svg

<svg width="30" height="30" viewBox="0 0 30 30" fill="none" xmlns="http://www.w3.org/2000/svg">
<path d="M27.946 14.3687C27.8051 11.0249 26.3959 7.90359 23.978 5.57965C21.7652 3.45281 18.9167 2.1985 15.8789 1.99512V0H14.1211V1.99512C11.0833 2.1985 8.23477 3.45281 6.02197 5.57965C3.60404 7.90359 2.19486 11.0249 2.05395 14.3687L1.99072 15.8686L3.32959 15.1896C4.14264 14.7773 5.02043 14.5683 5.93859 14.5683C7.40244 14.5683 8.79891 15.1171 9.87088 16.1136L10.4693 16.6699L11.0677 16.1136C11.9225 15.3189 12.9839 14.8101 14.121 14.6361V30H15.8788V14.6361C17.016 14.8101 18.0774 15.3189 18.9322 16.1135L19.5306 16.6698L20.129 16.1135C21.2009 15.117 22.5974 14.5682 24.0613 14.5682C24.9795 14.5682 25.8572 14.7773 26.6703 15.1896L28.0092 15.8685L27.946 14.3687ZM9.63721 13.7807C8.51789 13.1488 7.24922 12.8104 5.93859 12.8104C5.25762 12.8104 4.5934 12.8988 3.95168 13.0741C4.34355 10.7086 5.48402 8.53477 7.24008 6.84697C8.77354 5.37311 10.6604 4.38445 12.7015 3.95953C11.4309 5.67809 9.91852 8.74383 9.63721 13.7807ZM14.9999 12.8104C13.7288 12.8104 12.4973 13.1288 11.403 13.7244C11.5544 11.3354 12.0621 8.47213 13.4261 6.07072C14.0132 5.0373 14.6037 4.36957 15 3.98807C15.3963 4.36951 15.9868 5.0373 16.5738 6.07072C17.9379 8.47213 18.4455 11.3354 18.5968 13.7244C17.5026 13.1288 16.2711 12.8104 14.9999 12.8104ZM24.0613 12.8104C22.7507 12.8104 21.4821 13.1487 20.3627 13.7807C20.0814 8.74389 18.5691 5.67809 17.2985 3.95953C19.3396 4.38445 21.2265 5.37311 22.7599 6.84697C24.5159 8.53482 25.6564 10.7086 26.0483 13.0741C25.4066 12.8988 24.7424 12.8104 24.0613 12.8104Z" fill="#E0E3E4"/>
</svg>

<svg width="30" height="30" fill="none" xmlns="http://www.w3.org/2000/svg"><path d="M27.946 14.369a12.892 12.892 0 00-3.968-8.79 12.887 12.887 0 00-8.1-3.584V0h-1.757v1.995A12.887 12.887 0 006.022 5.58a12.892 12.892 0 00-3.968 8.789l-.063 1.5 1.339-.68a5.715 5.715 0 012.609-.62c1.463 0 2.86.548 3.932 1.545l.598.556.599-.556a5.754 5.754 0 013.053-1.478V30h1.758V14.636a5.754 5.754 0 013.053 1.477l.599.557.598-.557a5.758 5.758 0 013.932-1.545c.919 0 1.796.21 2.61.622l1.338.678-.063-1.5zM9.637 13.78a7.51 7.51 0 00-3.698-.97c-.681 0-1.346.088-1.987.263A11.14 11.14 0 017.24 6.847a11.142 11.142 0 015.461-2.887c-1.27 1.718-2.782 4.784-3.064 9.82zM15 12.81a7.512 7.512 0 00-3.597.913c.151-2.389.66-5.252 2.023-7.653.587-1.034 1.178-1.701 1.574-2.083.396.382.987 1.05 1.574 2.083 1.364 2.401 1.871 5.264 2.023 7.653A7.511 7.511 0 0015 12.81zm9.061 0a7.51 7.51 0 00-3.698.97c-.282-5.037-1.794-8.103-3.064-9.821a11.141 11.141 0 015.46 2.887 11.141 11.141 0 013.29 6.227 7.517 7.517 0 00-1.988-.264z" fill="#E0E3E4"/></svg>
